coreui/free/cil-airplay.svg

<svg xmlns="http://www.w3.org/2000/svg" viewBox="0 0 512 512">
  <path fill="var(--ci-primary-color, currentColor)" d="M464,47H48A32.036,32.036,0,0,0,16,79V376a32.036,32.036,0,0,0,32,32h76.448l24.89-32H48V79H464l.02,297H362.662l24.89,32H464a32.036,32.036,0,0,0,32-32V79A32.036,32.036,0,0,0,464,47Z" class="ci-primary"/>
  <path fill="var(--ci-primary-color, currentColor)" d="M98.834,496H413.166L256,293.939Zm65.431-32L256,346.061,347.735,464Z" class="ci-primary"/>
</svg>

<svg viewBox="0 0 512 512" xmlns="http://www.w3.org/2000/svg"><g><path d="M464 47H48v0c-17.67.01-31.99 14.33-32 32v297 0c.01 17.66 14.33 31.98 32 32h76.44l24.89-32H47.99V79h416l.02 297H362.65l24.89 32h76.44 -.001c17.66-.02 31.98-14.34 32-32V79v0c-.02-17.67-14.34-31.99-32-32Z"/><path d="M98.834 496h314.332L256 293.93Zm65.43-32l91.73-117.94 91.73 117.93Z"/></g></svg>
